src/assets/img/advantages-img-4.svg

<svg width="49" height="54" viewBox="0 0 49 54" fill="none" xmlns="http://www.w3.org/2000/svg">
<path d="M16.5303 7.67657L12.0365 5.14701L9.57788 0.520726C9.20981 -0.173575 8.09914 -0.173575 7.73107 0.520726L5.2723 5.14701L0.778581 7.67657C0.440327 7.86652 0.230469 8.23112 0.230469 8.62748C0.230469 9.02383 0.440225 9.38843 0.778581 9.57849L5.2723 12.1086L7.73097 16.7343C7.915 17.0821 8.26985 17.298 8.65442 17.298C9.03899 17.298 9.39375 17.0821 9.57788 16.7343L12.0365 12.1086L16.5303 9.57849C16.8685 9.38854 17.0784 9.02393 17.0784 8.62748C17.0783 8.23123 16.8685 7.86652 16.5303 7.67657ZM10.7553 10.3591C10.5784 10.4585 10.4334 10.6083 10.3368 10.7898L8.65453 13.9554L6.97218 10.7898C6.87555 10.6083 6.73055 10.4585 6.55369 10.3591L3.47795 8.62758L6.55358 6.89652C6.73045 6.79707 6.87544 6.6473 6.97207 6.46579L8.65432 3.30014L10.3366 6.46579C10.4332 6.6473 10.5782 6.79707 10.7551 6.89652L13.8307 8.62758L10.7553 10.3591Z" fill="black"/>
<path d="M31.2763 36.9393L26.7825 34.4097L24.3239 29.7834C23.9557 29.0891 22.8451 29.0891 22.4771 29.7834L20.0184 34.4097L15.5247 36.9393C15.1864 37.1291 14.9766 37.4937 14.9766 37.8902C14.9766 38.2865 15.1863 38.6511 15.5247 38.8412L20.0184 41.3713L22.4771 45.997C22.6611 46.3448 23.0158 46.5606 23.4005 46.5606C23.7851 46.5606 24.1398 46.3448 24.324 45.997L26.7826 41.3713L31.2764 38.8412C31.6146 38.6512 31.8245 38.2865 31.8245 37.8902C31.8244 37.4937 31.6145 37.1291 31.2763 36.9393ZM25.5013 39.6218C25.3244 39.7211 25.1794 39.871 25.0828 40.0525L23.4005 43.2181L21.7183 40.0525C21.6216 39.871 21.4766 39.7211 21.2998 39.6218L18.2241 37.8903L21.2998 36.1592C21.4766 36.0598 21.6216 35.9098 21.7183 35.7285L23.4005 32.5628L25.0828 35.7285C25.1794 35.9099 25.3244 36.0598 25.5013 36.1592L28.5769 37.8903L25.5013 39.6218Z" fill="black"/>
<path d="M48.0356 46.6393L44.962 44.9084L43.2797 41.7438C42.9115 41.0485 41.8009 41.0485 41.4329 41.7438L39.7506 44.9084L36.677 46.6393C36.3387 46.8299 36.1289 47.1945 36.1289 47.5904C36.1289 47.9867 36.3387 48.3513 36.677 48.5414L39.7506 50.2718L41.4329 53.4364C41.6169 53.7841 41.9717 54 42.3563 54C42.7409 54 43.0956 53.7841 43.2798 53.4364L44.9621 50.2718L48.0357 48.5414C48.3741 48.3514 48.5838 47.9868 48.5838 47.5904C48.5837 47.1945 48.374 46.8299 48.0356 46.6393ZM43.6807 48.5223C43.5039 48.6217 43.3589 48.7715 43.2623 48.953L42.3563 50.6576L41.4504 48.953C41.3537 48.7715 41.2088 48.6217 41.0319 48.5223L39.3763 47.5904L41.0319 46.6579C41.2088 46.5585 41.3537 46.4087 41.4504 46.2271L42.3563 44.5224L43.2623 46.2271C43.3589 46.4086 43.5039 46.5584 43.6807 46.6579L45.3362 47.5904L43.6807 48.5223Z" fill="black"/>
<path d="M32.9823 19.6893C32.9823 19.0908 32.5114 18.6055 31.9294 18.6055H31.3124L31.7484 18.0994C32.1597 17.676 32.1597 16.9616 31.7484 16.5382C31.3371 16.1149 30.6123 16.1004 30.201 16.5238L29.7067 16.9582V16.3232C29.7067 15.7246 29.2357 15.2394 28.6537 15.2394C28.0717 15.2394 27.6007 15.7246 27.6007 16.3232V16.9582L27.2231 16.5094C26.8118 16.0861 26.1745 16.0861 25.7632 16.5094C25.3519 16.9328 25.3666 17.6759 25.7779 18.0993L26.2282 18.6054H25.6116C25.0295 18.6054 24.5586 19.0907 24.5586 19.6892C24.5586 20.2877 25.0295 20.773 25.6116 20.773H26.2291L25.7925 21.1649C25.3812 21.5883 25.3812 22.2455 25.7925 22.6688C25.9982 22.8806 26.2676 22.972 26.537 22.972C26.8064 22.972 27.0175 22.8591 27.2231 22.6474L27.6007 22.1914V22.826C27.6007 23.4245 28.0717 23.9098 28.6537 23.9098C29.2357 23.9098 29.7067 23.4245 29.7067 22.826V22.1914L30.201 22.6402C30.4067 22.8519 30.7052 22.9578 30.9745 22.9578C31.2439 22.9578 31.528 22.852 31.7337 22.6402C32.1451 22.2169 32.1522 21.5883 31.7409 21.1649L31.3119 20.773H31.9294C32.5114 20.7731 32.9823 20.2879 32.9823 19.6893Z" fill="black"/>
<path d="M6.65553 40.2815H5.48584V39.0831C5.48584 38.4845 5.01489 37.9993 4.43286 37.9993C3.85083 37.9993 3.37988 38.4845 3.37988 39.0831V40.2815H2.44361C1.86158 40.2815 1.39062 40.7668 1.39062 41.3653C1.39062 41.9638 1.86158 42.4491 2.44361 42.4491H3.37988V43.4183C3.37988 44.0168 3.85083 44.5021 4.43286 44.5021C5.01489 44.5021 5.48584 44.0168 5.48584 43.4183V42.4491H6.65553C7.23756 42.4491 7.70851 41.9638 7.70851 41.3653C7.70851 40.7668 7.23756 40.2815 6.65553 40.2815Z" fill="black"/>
<path d="M41.3167 3.85945L42.1517 2.99998C42.5631 2.57663 42.5631 1.89077 42.1517 1.46742C41.7404 1.04406 41.0741 1.04406 40.6627 1.46742L39.8278 2.32688L38.9928 1.46742C38.5815 1.04406 37.9151 1.04406 37.5038 1.46742C37.0925 1.89077 37.0925 2.57663 37.5038 2.99998L38.3388 3.85945L37.5038 4.71881C37.0925 5.14216 37.0925 5.82802 37.5038 6.25137C37.7095 6.46305 37.9788 6.56894 38.2483 6.56894C38.5177 6.56894 38.7871 6.46305 38.9928 6.25137L39.8278 5.39191L40.6627 6.25137C40.8684 6.46305 41.1378 6.56894 41.4073 6.56894C41.6767 6.56894 41.9461 6.46305 42.1517 6.25137C42.5631 5.82802 42.5631 5.14216 42.1517 4.71881L41.3167 3.85945Z" fill="black"/>
</svg>

<svg xmlns="http://www.w3.org/2000/svg" width="49" height="54" fill="none"><path fill="#000" d="M16.5 7.7 12 5 9.6.5C9.2-.2 8-.2 7.7.5L5.3 5.1.8 7.7a1 1 0 0 0-.6 1c0 .3.2.7.6.9L5.3 12l2.4 4.6c.2.4.6.6 1 .6a1 1 0 0 0 .9-.6l2.4-4.6 4.5-2.5c.4-.2.6-.6.6-1a1 1 0 0 0-.6-1Zm-5.7 2.7a1 1 0 0 0-.5.4L8.7 14 7 10.8a1 1 0 0 0-.4-.4L3.5 8.6l3-1.7.5-.4 1.7-3.2 1.6 3.2.5.4 3 1.7-3 1.8ZM31.3 37l-4.5-2.6-2.5-4.6c-.3-.7-1.5-.7-1.8 0L20 34.4 15.5 37a1 1 0 0 0-.5 1c0 .4.2.8.5 1l4.5 2.5 2.5 4.6c.2.3.5.6.9.6a1 1 0 0 0 1-.6l2.4-4.6 4.5-2.6c.3-.1.5-.5.5-1a1 1 0 0 0-.5-.9Zm-5.8 2.6a1 1 0 0 0-.4.5l-1.7 3.1-1.7-3.1a1 1 0 0 0-.4-.5l-3-1.7 3-1.7.4-.5 1.7-3.1 1.7 3.1c0 .2.2.4.4.5l3 1.7-3 1.7ZM48 46.6 45 45l-1.7-3.2c-.4-.7-1.5-.7-1.9 0L39.8 45l-3.1 1.7a1 1 0 0 0-.6 1c0 .4.2.8.6 1l3 1.7 1.7 3.1c.2.4.6.6 1 .6a1 1 0 0 0 .9-.6l1.7-3.1 3-1.8c.4-.1.6-.5.6-1a1 1 0 0 0-.6-.9Zm-4.3 2a1 1 0 0 0-.4.4l-1 1.7-.8-1.7a1 1 0 0 0-.5-.5l-1.6-1 1.6-.8.5-.5.9-1.7.9 1.7c0 .2.2.4.4.5l1.6.9-1.6 1ZM33 19.7c0-.6-.5-1-1-1h-.7l.4-.6c.5-.4.5-1.1 0-1.6-.4-.4-1-.4-1.5 0l-.5.5v-.7c0-.6-.5-1-1-1a1 1 0 0 0-1.1 1v.7l-.4-.5a1 1 0 0 0-1.4 0c-.4.4-.4 1.2 0 1.6l.4.5h-.6a1 1 0 0 0-1 1c0 .7.4 1.2 1 1.2h.6l-.4.4a1 1 0 0 0 0 1.5c.2.2.5.3.7.3.3 0 .5-.1.7-.4l.4-.4v.6c0 .6.5 1.1 1 1.1.6 0 1.1-.5 1.1-1v-.7l.5.4c.2.3.5.4.8.4.2 0 .5-.1.7-.4.4-.4.5-1 0-1.4l-.4-.4h.6c.6 0 1-.5 1-1.1ZM6.7 40.3H5.5V39c0-.6-.5-1.1-1-1.1a1 1 0 0 0-1.1 1v1.3h-1a1 1 0 0 0-1 1c0 .7.5 1.1 1 1.1h1v1c0 .6.5 1.1 1 1.1.6 0 1-.5 1-1v-1h1.3c.5 0 1-.5 1-1.1 0-.6-.5-1.1-1-1.1ZM41.3 3.9l.9-.9c.4-.4.4-1.1 0-1.5a1 1 0 0 0-1.5 0l-.9.8-.8-.8a1 1 0 0 0-1.5 0c-.4.4-.4 1 0 1.5l.8.9-.8.8c-.4.4-.4 1.1 0 1.6a1 1 0 0 0 1.5 0l.8-1 .9 1a1 1 0 0 0 1.5 0c.4-.5.4-1.2 0-1.6l-.9-.8Z"/></svg>
